X:239
T: Margaret Roach or Gallen's Lament
N: O'Farrell's Pocket Companion v.3 (Sky ed. p.114)
N: "Irish"
% time signature in P.C. is incorrect
M: 3/4
L: 1/8
R: waltz
Q: 160
K: Em
GE | E2 G2 GE| E4 GA/B/| c4 BA| B4 G>A|
B2 e4 | ed cB AG| A4 BG| A3G E2| c4 BA|
B4 AG| E2 E2 G>A| G4 E2| A4 G>A| B3A GE|
D4 EF| E4 ||
